X: 75
T: MY OWN YOUNG DEAR
B: O'Neill's 75
M: 3/4
L: 1/8
Z: Transcribed by John Chambers <jc@trillian.mit.edu>
N: "Tenderly"
K:D
A GA \
| (F2 E)D EF | (D2 F)A BG | (F2 E)D GF | E3 A GA |
| (F2 E)D EF | (D2 F)A BG | (F2 E)D EF | D3 ||
|| A BA \
| (B2d)e fe | d3 e fe | dB AB ee | e3 d/e/ fe |
| dB AB dA | (F2G)A BG | (F2 E)D EF | D3 ||


